assets/img/braze_icons/scales-02.svg

<svg fill="none" height="24" viewBox="0 0 24 24" width="24" xmlns="http://www.w3.org/2000/svg"><g fill="#801ed7"><path d="m8.64494 5.5-4.64494.00001c-.55228 0-1-.44772-1-1 0-.55229.44771-1 1-1l4.64494-.00001c.43027-1.44574 1.76956-2.5 3.35506-2.5s2.9248 1.05426 3.3551 2.5h4.6449c.5523 0 1 .44772 1 1 0 .55229-.4477 1-1 1h-4.6449c-.336 1.12889-1.2262 2.01909-2.3551 2.35506v12.14494h7c.5523 0 1 .4477 1 1s-.4477 1-1 1h-16c-.55228 0-1-.4477-1-1s.44772-1 1-1h7v-12.14494c-1.12889-.33597-2.01909-1.22617-2.35506-2.35506z"/><g clip-rule="evenodd" fill-rule="evenodd"><path d="m5.49998 7c.33894 0 .65481.17168.83916.4561l3.0038 4.6344c.16286.2511.30967.4773.43029.8342.05221.1545.08909.3467.11131.4845.02223.1379.04758.3319.04655.495-.00089.1417-.00587.2684-.02247.3924-.01664.1244-.04229.2223-.05821.2831l-.00244.0094c-.50835 1.9464-2.2466 3.4109-4.34799 3.4109-2.10138 0-3.83964-1.4645-4.34798-3.4109l-.00241-.0093c-.01592-.0607-.04159-.1588-.05824-.2832-.0166-.124-.02158-.2507-.02247-.3924-.00103-.1631.02432-.3571.04654-.495.02223-.1378.05911-.33.11132-.4845.12062-.3569.26743-.5831.43029-.8342l3.0038-4.6344c.18435-.28442.50022-.4561.83915-.4561zm0 2.83859-1.40091 2.16141h2.80183z"/><path d="m19.3391 7.4561c-.1843-.28442-.5002-.4561-.8391-.4561-.339 0-.6548.17168-.8392.4561l-3.0038 4.6344c-.1628.2511-.3096.4773-.4303.8342-.0522.1545-.0891.3467-.1113.4845-.0222.1379-.0475.3319-.0465.495.0009.1417.0059.2684.0225.3924.0166.1244.0423.2224.0582.2832l.0024.0093c.5083 1.9464 2.2466 3.4109 4.348 3.4109s3.8396-1.4645 4.348-3.4109l.0024-.0093c.0159-.0607.0416-.1588.0582-.2832.0166-.124.0216-.2507.0225-.3924.001-.1631-.0243-.3571-.0466-.495-.0222-.1378-.0591-.33-.1113-.4845-.1206-.3569-.2674-.5831-.4303-.8342zm-2.24 4.5439 1.4009-2.16141 1.4009 2.16141z"/></g></g></svg>

<svg width="24" height="24" viewBox="0 0 24 24" fill="none" xmlns="http://www.w3.org/2000/svg">
<path d="M8.64494 5.5L4 5.50001C3.44772 5.50001 3 5.05229 3 4.50001C3 3.94772 3.44771 3.50001 4 3.50001L8.64494 3.5C9.07521 2.05426 10.4145 1 12 1C13.5855 1 14.9248 2.05426 15.3551 3.5L20 3.5C20.5523 3.5 21 3.94772 21 4.5C21 5.05229 20.5523 5.5 20 5.5L15.3551 5.5C15.0191 6.62889 14.1289 7.51909 13 7.85506V20H20C20.5523 20 21 20.4477 21 21C21 21.5523 20.5523 22 20 22L4 22C3.44772 22 3 21.5523 3 21C3 20.4477 3.44772 20 4 20H11V7.85506C9.87111 7.51909 8.98091 6.62889 8.64494 5.5Z" fill="#801ED7"/>
<path fill-rule="evenodd" clip-rule="evenodd" d="M5.49998 7C5.83892 7 6.15479 7.17168 6.33914 7.4561L9.34294 12.0905C9.5058 12.3416 9.65261 12.5678 9.77323 12.9247C9.82544 13.0792 9.86232 13.2714 9.88454 13.4092C9.90677 13.5471 9.93212 13.7411 9.93109 13.9042C9.9302 14.0459 9.92522 14.1726 9.90862 14.2966C9.89198 14.421 9.86633 14.5189 9.85041 14.5797L9.84797 14.5891C9.33962 16.5355 7.60137 18 5.49998 18C3.3986 18 1.66034 16.5355 1.152 14.5891L1.14959 14.5798C1.13367 14.5191 1.108 14.421 1.09135 14.2966C1.07475 14.1726 1.06977 14.0459 1.06888 13.9042C1.06785 13.7411 1.0932 13.5471 1.11542 13.4092C1.13765 13.2714 1.17453 13.0792 1.22674 12.9247C1.34736 12.5678 1.49417 12.3416 1.65703 12.0905L4.66083 7.4561C4.84518 7.17168 5.16105 7 5.49998 7ZM5.49998 9.83859L4.09907 12H6.9009L5.49998 9.83859Z" fill="#801ED7"/>
<path fill-rule="evenodd" clip-rule="evenodd" d="M19.3391 7.4561C19.1548 7.17168 18.8389 7 18.5 7C18.161 7 17.8452 7.17168 17.6608 7.4561L14.657 12.0905C14.4942 12.3416 14.3474 12.5678 14.2267 12.9247C14.1745 13.0792 14.1376 13.2714 14.1154 13.4092C14.0932 13.5471 14.0679 13.7411 14.0689 13.9042C14.0698 14.0459 14.0748 14.1726 14.0914 14.2966C14.108 14.421 14.1337 14.519 14.1496 14.5798L14.152 14.5891C14.6603 16.5355 16.3986 18 18.5 18C20.6014 18 22.3396 16.5355 22.848 14.5891L22.8504 14.5798C22.8663 14.5191 22.892 14.421 22.9086 14.2966C22.9252 14.1726 22.9302 14.0459 22.9311 13.9042C22.9321 13.7411 22.9068 13.5471 22.8845 13.4092C22.8623 13.2714 22.8254 13.0792 22.7732 12.9247C22.6526 12.5678 22.5058 12.3416 22.3429 12.0905L19.3391 7.4561ZM17.0991 12L18.5 9.83859L19.9009 12H17.0991Z" fill="#801ED7"/>
</svg>
